logo/postgraphile.svg

<?xml version="1.0" encoding="UTF-8"?>
<svg width="256px" height="247px" viewBox="0 0 256 247" version="1.1" xmlns="http://www.w3.org/2000/svg" xmlns:xlink="http://www.w3.org/1999/xlink" preserveAspectRatio="xMidYMid">
    <g>
        <polygon fill="#468BCC" points="16.6956522 131.33913 0 74.573913 52.3130435 0 153.6 131.33913"></polygon>
        <polygon fill="#4BA8FF" points="0 74.573913 52.3130435 0 128 23.373913 153.6 131.33913"></polygon>
        <polygon fill="#468BCC" points="52.3130435 0 128 23.373913 203.686957 0 153.6 131.33913"></polygon>
        <polygon fill="#468BCC" points="128 23.373913 203.686957 0 256 74.573913 153.6 131.33913"></polygon>
        <polygon fill="#4BA8FF" points="203.686957 0 256 74.573913 239.304348 131.33913 153.6 131.33913"></polygon>
        <polygon fill="#468BCC" points="256 74.573913 239.304348 131.33913 128 229.286957 153.6 131.33913"></polygon>
        <polygon fill="#468BCC" points="239.304348 131.33913 128 229.286957 16.6956522 131.33913 153.6 131.33913"></polygon>
        <polygon fill="#468BCC" points="128 229.286957 16.6956522 131.33913 0 74.573913 153.6 131.33913"></polygon>
        <polygon fill="#468BCC" points="16.6956522 131.33913 0 74.573913 153.6 131.33913"></polygon>
        <polygon fill="#FFFFFF" points="77.9130435 159.165217 96.8347826 171.408696 66.7826087 194.782609"></polygon>
        <path d="M77.0631413,158.899623 L65.9327065,194.517014 C65.6725062,195.349655 66.6406909,196.021047 67.3292828,195.485475 L97.3814567,172.111562 C97.8652611,171.73527 97.8330961,170.994079 97.3185124,170.661113 L78.3967733,158.417635 C77.9022335,158.097639 77.238837,158.337397 77.0631413,158.899623 Z M78.4132452,160.549398 L95.29856,171.475256 L68.4806678,192.33369 L78.4132452,160.549398 Z" fill="#082744"></path>
        <polygon fill="#FFFFFF" points="178.086957 159.165217 159.165217 171.408696 189.217391 194.782609"></polygon>
        <path d="M177.603227,158.417635 L158.681488,170.661113 C158.166904,170.994079 158.134739,171.73527 158.618543,172.111562 L188.670717,195.485475 C189.359309,196.021047 190.327494,195.349655 190.067293,194.517014 L178.936859,158.899623 C178.761163,158.337397 178.097766,158.097639 177.603227,158.417635 Z M177.586532,160.549398 L187.51911,192.33369 L160.701217,171.475256 L177.586532,160.549398 Z" fill="#082744"></path>
        <polygon fill="#4BA8FF" points="66.7826087 61.2173913 103.513043 15.8052174 152.486957 15.8052174 128 94.6086957"></polygon>
        <polygon fill="#468BCC" points="103.513043 15.8052174 152.486957 15.8052174 189.217391 61.2173913 128 94.6086957"></polygon>
        <polygon fill="#166EBF" points="152.486957 15.8052174 189.217391 61.2173913 189.217391 155.826087 128 94.6086957"></polygon>
        <polygon fill="#0B457F" points="189.217391 61.2173913 189.217391 155.826087 152.486957 180.313043 128 94.6086957"></polygon>
        <polygon fill="#0C3861" points="189.217391 155.826087 152.486957 180.313043 128 245.982609 128 94.6086957"></polygon>
        <polygon fill="#166EBF" points="152.486957 180.313043 152.486957 233.73913 128 245.982609 103.513043 180.313043 128 94.6086957"></polygon>
        <polygon fill="#4BA8FF" points="128 245.982609 103.513043 233.73913 103.513043 180.313043 66.7826087 155.826087 128 94.6086957"></polygon>
        <polygon fill="#166EBF" points="103.513043 180.313043 66.7826087 155.826087 66.7826087 61.2173913 128 94.6086957"></polygon>
        <polygon fill="#468BCC" points="66.7826087 155.826087 66.7826087 61.2173913 128 94.6086957"></polygon>
        <path d="M152.486957,14.9147826 L103.513043,14.9147826 C103.244216,14.9147826 102.989778,15.036234 102.820721,15.2452503 L66.0902858,60.6574243 C65.9621041,60.8159035 65.8921739,61.0135624 65.8921739,61.2173913 L65.8921739,155.826087 L65.8937083,155.878402 C65.9100212,156.156125 66.0555382,156.411543 66.2886843,156.566973 L102.622609,180.789649 L102.622609,233.73913 C102.622609,234.076402 102.813164,234.384727 103.114829,234.53556 L127.601785,246.779038 C127.852467,246.904379 128.147533,246.904379 128.398215,246.779038 L152.885171,234.53556 L152.927502,234.512955 C153.204552,234.355297 153.377391,234.060342 153.377391,233.73913 L153.377391,180.789426 L189.711316,156.566973 C189.959033,156.401828 190.107826,156.123807 190.107826,155.826087 L190.107826,61.2173913 C190.107826,61.0135624 190.037896,60.8159035 189.909714,60.6574243 L153.179279,15.2452503 C153.010222,15.036234 152.755784,14.9147826 152.486957,14.9147826 Z M152.061774,16.6956522 L188.326957,61.5326052 L188.326957,155.349259 L151.993032,179.572157 L151.950354,179.602453 C151.728324,179.770079 151.596522,180.032837 151.596522,180.313043 L151.596522,233.188842 L128,244.987103 L104.403478,233.188842 L104.403478,180.313043 L104.401944,180.260728 C104.385631,179.983006 104.240114,179.727588 104.006968,179.572157 L67.6730435,155.349482 L67.6730435,61.5323826 L103.938003,16.6956522 L152.061774,16.6956522 Z" fill="#082744"></path>
        <polygon fill="#FFFFFF" points="80.1391304 86.8173913 109.078261 95.7217391 80.1391304 106.852174"></polygon>
        <polygon fill="#FFFFFF" points="175.86087 86.8173913 146.921739 95.7217391 175.86087 106.852174"></polygon>
    </g>
</svg>

<svg viewBox="0 0 256 247" xmlns="http://www.w3.org/2000/svg"><path fill="#468BCC" d="M16.69 131.33L-.01 74.56 52.3-.02l101.28 131.33Z"/><path fill="#4BA8FF" d="M0 74.57L52.31-.01l75.68 23.37 25.6 107.96Z"/><g fill="#468BCC"><path d="M52.31 0l75.68 23.37L203.67-.01l-50.09 131.33Z"/><path d="M128 23.37L203.68-.01l52.31 74.57 -102.4 56.76Z"/></g><path fill="#4BA8FF" d="M203.68 0l52.31 74.57 -16.7 56.76 -85.71 0Z"/><g fill="#468BCC"><path d="M256 74.57l-16.7 56.76 -111.31 97.94 25.6-97.95Z"/><path d="M239.3 131.33l-111.31 97.94 -111.31-97.95 136.9 0Z"/><path d="M128 229.28L16.69 131.33 -.01 74.56l153.6 56.76Z"/><path d="M16.69 131.33L-.01 74.56l153.6 56.76Z"/></g><path fill="#FFF" d="M77.91 159.16l18.92 12.24 -30.06 23.37Z"/><path fill="#082744" d="M77.06 158.89L65.92 194.5c-.27.83.7 1.5 1.39.96l30.05-23.38c.48-.38.45-1.12-.07-1.46l-18.93-12.25c-.5-.32-1.16-.09-1.34.48Zm1.35 1.64l16.88 10.92 -26.82 20.85 9.93-31.79Z"/><path fill="#FFF" d="M178.08 159.16l-18.93 12.24 30.05 23.37Z"/><path fill="#082744" d="M177.6 158.41l-18.93 12.24c-.52.33-.55 1.07-.07 1.45l30.05 23.37c.68.53 1.65-.14 1.39-.97l-11.14-35.62c-.18-.57-.84-.81-1.34-.49Zm-.02 2.13l9.93 31.78 -26.82-20.86 16.88-10.93Z"/><path fill="#4BA8FF" d="M66.78 61.21l36.73-45.42 48.97 0 -24.49 78.8Z"/><path fill="#468BCC" d="M103.51 15.8l48.97 0 36.73 45.41 -61.22 33.39Z"/><path fill="#166EBF" d="M152.48 15.8l36.73 45.41 0 94.6 -61.22-61.22Z"/><path fill="#0B457F" d="M189.21 61.21l0 94.6 -36.74 24.48 -24.49-85.71Z"/><path fill="#0C3861" d="M189.21 155.82l-36.74 24.48 -24.49 65.66 0-151.38Z"/><path fill="#166EBF" d="M152.48 180.31l0 53.42 -24.49 12.24 -24.49-65.67 24.48-85.71Z"/><path fill="#4BA8FF" d="M128 245.98l-24.49-12.25 0-53.43 -36.74-24.49 61.21-61.22Z"/><path fill="#166EBF" d="M103.51 180.31l-36.74-24.49 0-94.61 61.21 33.39Z"/><path fill="#468BCC" d="M66.78 155.82l0-94.61 61.21 33.39Z"/><path fill="#082744" d="M152.48 14.91H103.5c-.27 0-.53.12-.7.33L66.06 60.65c-.13.15-.2.35-.2.55v94.6l0 .05c.01.27.16.53.39.68l36.33 24.22v52.94c0 .33.19.64.49.79l24.48 12.24c.25.12.54.12.79 0l24.48-12.25 .04-.03c.27-.16.44-.46.44-.78v-52.95l36.33-24.23c.24-.17.39-.45.39-.75V61.12c0-.21-.07-.41-.2-.56l-36.74-45.42c-.17-.21-.43-.34-.7-.34Zm-.43 1.78l36.26 44.83v93.81l-36.34 24.22 -.05.03c-.23.16-.36.43-.36.71v52.87l-23.6 11.79 -23.6-11.8v-52.88l-.01-.06c-.02-.28-.17-.54-.4-.69l-36.34-24.23V61.47l36.26-44.84h48.12Z"/><g fill="#FFF"><path d="M80.13 86.81l28.93 8.9 -28.94 11.13Z"/><path d="M175.86 86.81l-28.94 8.9 28.93 11.13Z"/></g></svg>
